docs/img/ico-alert.svg

<?xml version="1.0" encoding="utf-8"?>
<svg width="22px" height="24px" viewbox="0 0 22 24" version="1.1" xmlns:xlink="http://www.w3.org/1999/xlink" xmlns="http://www.w3.org/2000/svg">
  <defs>
    <path d="M0 0L20.922 0L20.922 17.903L0 17.903L0 0Z" transform="translate(2.9878109E-05 0.043178573)" id="path_1" />
    <clipPath id="mask_1">
      <use xlink:href="#path_1" />
    </clipPath>
  </defs>
  <g id="Group-6" transform="translate(0.25 0.25)">
    <g id="Group-3">
      <path d="M0 0L20.922 0L20.922 17.903L0 17.903L0 0Z" transform="translate(2.9878109E-05 0.043178573)" id="Clip-2" fill="none" fill-rule="evenodd" stroke="none" />
      <g clip-path="url(#mask_1)">
        <path d="M4.10832 8.32149C4.11235 5.10239 6.00204 2.64003 9.04004 1.89517C9.53258 1.77453 10.0272 1.7156 10.5164 1.7156C12.4159 1.7156 14.2279 2.60424 15.4681 4.20721C16.354 5.35214 16.8049 6.70331 16.8082 8.22313C16.8091 8.61742 16.8115 9.01181 16.814 9.40621C16.8206 10.5024 16.8277 11.6358 16.7992 12.7493C16.772 13.8148 17.4769 14.6427 18.439 14.675C18.6934 14.6835 18.9017 14.7691 19.0415 14.9225C19.1679 15.0611 19.2294 15.2444 19.2194 15.4525C19.1978 15.8943 18.861 16.1692 18.3403 16.1696C16.4007 16.1712 14.4612 16.1711 12.5214 16.1707L2.77535 16.1705L2.69369 16.1709C2.61043 16.1713 2.52484 16.172 2.44137 16.1672C2.02699 16.1439 1.71411 15.8418 1.69757 15.4491C1.68166 15.0752 1.94066 14.7723 2.35684 14.6776C2.41093 14.6653 2.46566 14.6536 2.52049 14.6417C2.81905 14.5773 3.12769 14.5107 3.38234 14.3555C3.86513 14.0613 4.10949 13.566 4.10864 12.8834C4.10673 11.3627 4.10641 9.84206 4.10832 8.32149M19.6871 13.286C19.4384 13.1551 19.1698 13.0734 18.8853 12.9867C18.7672 12.9508 18.6453 12.9137 18.5232 12.8724L18.5232 12.5853C18.5232 12.1467 18.5228 11.708 18.5223 11.2693C18.5214 10.2942 18.5204 9.28588 18.5245 8.29428C18.531 6.77681 18.1886 5.39499 17.5069 4.18717C15.62 0.844099 12.0126 -0.685151 8.31713 0.290171C5.06807 1.14785 2.596 4.19842 2.43935 7.54374C2.38547 8.69296 2.38961 9.86371 2.39364 10.9958C2.39555 11.5056 2.39735 12.0327 2.39396 12.5508C2.39343 12.6408 2.39354 12.731 2.39375 12.8303L2.39385 12.9391L2.33796 12.9463C2.28313 12.9534 2.24091 12.959 2.19849 12.9635C1.47091 13.0402 0.820444 13.4358 0.413914 14.0491C0.00855043 14.6609 -0.105677 15.4167 0.100505 16.1228C0.425899 17.2366 1.37504 17.9019 2.63928 17.9022C4.67681 17.9027 6.71402 17.9031 8.75155 17.9031C11.9269 17.9031 15.1024 17.9023 18.2776 17.9007C18.479 17.9006 18.6849 17.8841 18.8891 17.8515C19.8657 17.6958 20.7041 16.8702 20.8822 15.8885C21.0717 14.8448 20.569 13.7503 19.6871 13.286" transform="translate(2.9878109E-05 0.043129314)" id="Fill-1" fill="#FFFFFF" fill-rule="evenodd" stroke="#452B78" stroke-width="0.5" />
      </g>
    </g>
    <path d="M5.39575 0.0492897C5.23134 1.3905 4.61545 2.0842 3.56524 2.11113C2.45055 2.14011 1.7975 1.44743 1.62243 0.0537395L1.61624 0.00467796L0 0.00467796L0.00314798 0.0651492C0.0863157 1.63683 0.695197 2.78316 1.81304 3.47253C2.38384 3.82452 2.96083 4 3.53143 4C4.22124 4 4.90131 3.74317 5.54878 3.23122C6.49155 2.4856 6.97959 1.41788 6.99919 0.0580752L7 0L5.40184 0L5.39575 0.0492897Z" transform="translate(7 19)" id="Fill-4" fill="#FFFFFF" fill-rule="evenodd" stroke="#452B78" stroke-width="0.5" />
  </g>
</svg>

<svg width="22" height="24" xmlns:xlink="http://www.w3.org/1999/xlink" xmlns="http://www.w3.org/2000/svg"><defs><clipPath id="b"><use xlink:href="#a"/></clipPath><path d="M0 0h20.922v17.903H0V0z" transform="translate(0 .043)" id="a"/></defs><path d="M.25.293h20.922v17.903H.25V.293z" fill="none"/><g clip-path="url(#b)" transform="translate(.25 .25)"><path d="M4.108 8.365c.004-3.22 1.894-5.682 4.932-6.427a6.2 6.2 0 011.476-.18c1.9 0 3.712.89 4.952 2.492.886 1.145 1.337 2.496 1.34 4.016.001.395.004.789.006 1.183.007 1.097.014 2.23-.015 3.343-.027 1.066.678 1.894 1.64 1.926.254.009.463.094.603.248a.716.716 0 01.177.53c-.021.441-.358.716-.879.717H2.775l-.081.001c-.084 0-.17.001-.253-.004-.414-.023-.727-.325-.743-.718-.016-.374.243-.677.659-.771.054-.013.109-.024.164-.036.298-.065.607-.131.861-.286.483-.295.728-.79.727-1.472-.002-1.521-.003-3.042 0-4.562m15.578 4.964c-.249-.13-.517-.212-.802-.3a12.18 12.18 0 01-.362-.113v-1.604c-.002-.975-.003-1.983.002-2.975.006-1.517-.336-2.899-1.018-4.107C15.62.887 12.013-.642 8.317.333c-3.249.858-5.721 3.909-5.878 7.254-.054 1.15-.05 2.32-.045 3.452a152.027 152.027 0 010 1.834v.11l-.056.006-.14.018a2.443 2.443 0 00-1.784 1.085A2.485 2.485 0 00.1 16.166c.325 1.114 1.274 1.779 2.538 1.78a24906.564 24906.564 0 0015.639-.002c.201 0 .407-.017.611-.05.977-.155 1.815-.98 1.993-1.962.19-1.044-.313-2.139-1.195-2.603" fill="#FFF" fill-rule="evenodd" stroke="#452B78" stroke-width=".5"/></g><path d="M12.646 19.3c-.165 1.34-.78 2.034-1.83 2.061-1.115.03-1.769-.664-1.944-2.057l-.006-.05H7.25l.003.061c.083 1.572.692 2.718 1.81 3.408.57.352 1.148.527 1.718.527.69 0 1.37-.257 2.018-.769.943-.745 1.43-1.813 1.45-3.173l.001-.058h-1.598l-.006.05z" fill="#FFF" fill-rule="evenodd" stroke="#452B78" stroke-width=".5"/></svg>
